src/app/assests/images/catalog/mariadb.svg

<?xml version="1.0" encoding="UTF-8" standalone="no"?>
<svg width="256px" height="170px" viewBox="0 0 256 170" version="1.1" xmlns="http://www.w3.org/2000/svg" xmlns:xlink="http://www.w3.org/1999/xlink" preserveAspectRatio="xMidYMid">
	<g>
		<path d="M250.391638,0.00446862369 C246.441675,0.130682345 247.690863,1.26880888 239.155816,3.36921556 C230.536983,5.49024566 220.008925,4.83986124 210.727768,8.73228955 C183.021866,20.351627 177.463048,60.0648737 152.275749,74.2909368 C133.44887,84.9252955 114.454287,85.7734716 97.3770448,91.1247628 C86.1542572,94.6439652 73.8775566,101.861116 63.7093926,110.623574 C55.8167711,117.427461 55.6106931,123.409835 47.3641472,131.94346 C38.5434001,141.071213 12.3067939,132.097702 0.415983224,146.067884 C4.24645595,149.940996 5.92576646,151.025838 13.4744129,150.020946 C11.9115659,152.983116 2.69890233,155.479419 4.50229457,159.836976 C6.39984964,164.42206 28.6722079,167.530243 48.9187222,155.306501 C58.3477968,149.613736 65.8580959,141.408437 80.5432186,139.449836 C99.5463429,136.917034 121.437616,141.074426 143.43688,144.24681 C140.174937,153.972942 133.625839,160.44104 128.379711,168.187265 C126.755136,169.936917 131.642705,170.133045 137.21858,169.075594 C147.248876,166.59538 154.477397,164.598418 162.047364,160.192308 C171.347098,154.778478 172.756356,140.898537 184.166744,137.895261 C190.524334,147.666875 207.815514,149.975122 218.54506,142.159239 C209.130198,139.494252 206.528135,119.454271 209.70619,110.623574 C212.716558,102.264758 215.69108,88.8936369 218.722725,77.8442509 C221.977561,65.9776028 223.178339,51.0207794 227.117429,44.9760945 C233.043861,35.8817563 239.592335,32.7587342 245.277595,27.6305201 C250.962841,22.5023059 256.166669,17.510397 255.995897,5.77598898 C255.940891,1.99639972 253.986654,-0.110417131 250.391638,0.00446862369 L250.391638,0.00446862369 L250.391638,0.00446862369 Z" fill="#002B64"></path>
		<path d="M8.59429122,159.000881 C23.012219,161.066067 31.7803771,159.000881 43.3584961,153.979338 C53.2097044,149.706833 62.7240586,140.898877 74.3576093,137.165055 C91.4433653,131.683002 110.179281,137.172162 128.443316,138.266583 C132.890644,138.533792 137.309545,138.536635 141.671594,138.061911 C148.475479,133.880371 148.334769,118.238682 154.956725,116.805986 C154.762003,138.751254 145.765012,151.899938 136.355836,164.632173 C156.186171,161.130027 168.052819,149.659929 176.067675,134.340881 C178.499564,129.695989 180.57612,124.698608 182.412473,119.461023 C185.25086,121.639915 183.64192,128.268978 185.068931,131.860668 C198.727871,124.252312 206.549426,106.887975 211.728736,89.3260752 C217.721046,69.0011179 220.174254,48.420322 224.038839,42.4066929 C227.811037,36.536618 233.681112,32.9179227 239.03951,29.1599376 C245.128469,24.8874326 250.559354,20.4344193 251.49743,12.2930657 C245.07588,11.6989516 243.590595,10.2136662 242.641149,6.97730766 C239.42611,8.78949791 236.469753,9.17751982 233.129638,9.27701262 C230.231554,9.36513481 227.047785,9.23579417 223.159038,9.63518669 C190.998702,12.9383476 186.912391,48.3847888 166.298904,68.4794913 C164.799406,69.9406141 163.177673,71.3036654 161.463554,72.5828586 C154.244641,77.9625763 145.38836,81.8072623 137.244164,84.9199655 C124.061369,89.9571438 111.528119,90.3153178 99.1597425,94.6631531 C90.080314,97.8540293 80.854489,102.483287 73.3967931,107.587268 C71.5320138,108.862197 69.7752553,110.168395 68.159208,111.490228 C63.7829462,115.070547 60.910447,119.043152 58.1317553,123.129463 C55.2663627,127.340852 52.4990416,131.673053 48.280547,135.811953 C41.4468131,142.522032 15.9112758,137.769119 6.92139088,143.991683 C5.91935628,144.683868 5.1234139,145.515343 4.58188881,146.513114 C9.48688374,148.741752 12.7630394,147.374437 18.4057024,147.9984 C19.1462131,153.352533 6.76362374,156.534881 8.59429122,159.000881 L8.59429122,159.000881 L8.59429122,159.000881 Z" fill="#FFFFFF"></path>
		<path d="M203.435102,120.426045 C203.81886,126.569015 207.384967,138.756883 210.533202,141.718926 C204.367492,143.218424 193.745925,140.741054 191.021244,136.391797 C192.42125,130.11238 199.706965,124.371646 203.435102,120.426045 L203.435102,120.426045 L203.435102,120.426045 Z" fill="#FFFFFF"></path>
		<path d="M212.467627,22.9347869 C217.020133,26.8874937 226.572863,23.7150948 224.865851,15.8508998 C217.791913,15.2653135 213.694231,17.6659326 212.467627,22.9347869 L212.467627,22.9347869 L212.467627,22.9347869 Z" fill="#002B64"></path>
		<path d="M244.207251,13.744495 C242.996281,16.2844041 240.678099,19.5591385 240.678099,26.024749 C240.66815,27.1348043 239.835253,27.8952136 239.82104,26.1839375 C239.883578,19.8647235 241.556479,17.1329355 243.333136,13.5426668 C244.158926,12.0715948 244.65639,12.6785008 244.207251,13.744495 L244.207251,13.744495 L244.207251,13.744495 Z" fill="#002B64"></path>
		<path d="M242.987754,12.7879429 C241.559321,15.2113032 238.119713,19.631626 237.551182,26.073074 C237.446004,27.1774441 236.547727,27.8611017 236.684175,26.1540896 C237.303872,19.8661448 240.052716,15.930494 242.139222,12.5093631 C243.085825,11.1178852 243.5307,11.7660098 242.987754,12.7879429 L242.987754,12.7879429 L242.987754,12.7879429 Z" fill="#002B64"></path>
		<path d="M241.876277,11.5201204 C240.248859,13.8141401 234.954421,19.1227915 233.847208,25.4945946 C233.648222,26.5847513 232.695934,27.1930787 232.975935,25.5031225 C234.121524,19.2876652 238.685401,14.4025688 241.051908,11.1718956 C242.112217,9.86285464 242.500239,10.5465123 241.876277,11.5201204 L241.876277,11.5201204 L241.876277,11.5201204 Z" fill="#002B64"></path>
		<path d="M240.884192,10.1059014 C238.951188,12.1483464 232.639081,18.9181206 230.649226,25.0696181 C230.296737,26.1213991 229.269117,26.5904366 229.785059,24.955912 C231.791971,18.963603 237.319506,12.5093631 240.116676,9.64397048 C241.351807,8.49696065 241.638915,9.22894338 240.884192,10.1059014 L240.884192,10.1059014 L240.884192,10.1059014 Z" fill="#002B64"></path>
	</g>
</svg>

<?xml version="1.0" encoding="UTF-8" standalone="no"?>
<svg
   xmlns:dc="http://purl.org/dc/elements/1.1/"
   xmlns:cc="http://creativecommons.org/ns#"
   xmlns:rdf="http://www.w3.org/1999/02/22-rdf-syntax-ns#"
   xmlns:svg="http://www.w3.org/2000/svg"
   xmlns="http://www.w3.org/2000/svg"
   xmlns:sodipodi="http://sodipodi.sourceforge.net/DTD/sodipodi-0.dtd"
   xmlns:inkscape="http://www.inkscape.org/namespaces/inkscape"
   width="400"
   height="400"
   viewBox="0 0 400 400"
   version="1.1"
   preserveAspectRatio="xMidYMid"
   id="svg10"
   sodipodi:docname="mariadb.svg"
   inkscape:version="0.92.1 unknown">
  <metadata
     id="metadata16">
    <rdf:RDF>
      <cc:Work
         rdf:about="">
        <dc:format>image/svg+xml</dc:format>
        <dc:type
           rdf:resource="http://purl.org/dc/dcmitype/StillImage" />
        <dc:title></dc:title>
      </cc:Work>
    </rdf:RDF>
  </metadata>
  <defs
     id="defs14" />
  <sodipodi:namedview
     pagecolor="#ffffff"
     bordercolor="#666666"
     borderopacity="1"
     objecttolerance="10"
     gridtolerance="10"
     guidetolerance="10"
     inkscape:pageopacity="0"
     inkscape:pageshadow="2"
     inkscape:window-width="1366"
     inkscape:window-height="744"
     id="namedview12"
     showgrid="false"
     inkscape:zoom="0.39731116"
     inkscape:cx="499.74618"
     inkscape:cy="189.92727"
     inkscape:window-x="1366"
     inkscape:window-y="24"
     inkscape:window-maximized="1"
     inkscape:current-layer="svg10" />
  <g
     id="g7546"
     transform="translate(71.792014,115.13818)">
    <path
       id="path7530"
       d="m 250.39164,0.00446862 c -3.94997,0.12621373 -2.70078,1.26434028 -11.23582,3.36474698 -8.61884,2.1210301 -19.1469,1.4706456 -28.42805,5.363074 C 183.02187,20.351627 177.46305,60.064874 152.27575,74.290937 133.44887,84.925296 114.45429,85.773472 97.377045,91.124763 86.154257,94.643965 73.877557,101.86112 63.709393,110.62357 c -7.892622,6.80389 -8.0987,12.78627 -16.345246,21.31989 -8.820747,9.12775 -35.057353,0.15424 -46.94816378,14.12442 3.83047268,3.87312 5.50978328,4.95796 13.05842978,3.95307 -1.562847,2.96217 -10.7755107,5.45847 -8.9721184,9.81603 1.897555,4.58508 24.1699134,7.69326 44.4164274,-4.53048 9.429075,-5.69276 16.939374,-13.89806 31.624497,-15.85666 19.003124,-2.53281 40.894401,1.62459 62.893661,4.79697 -3.26194,9.72613 -9.81104,16.19423 -15.05717,23.94045 -1.62457,1.74966 3.26299,1.94578 8.83887,0.88833 10.0303,-2.48021 17.25882,-4.47717 24.82878,-8.88328 9.29974,-5.41383 10.709,-19.29377 22.11938,-22.29705 6.35759,9.77161 23.64877,12.07986 34.37832,4.26398 -9.41486,-2.66499 -12.01693,-22.70497 -8.83887,-31.53567 3.01037,-8.35881 5.98489,-21.729933 9.01653,-32.779319 3.25484,-11.866648 4.45562,-26.823472 8.39471,-32.868156 5.92643,-9.094339 12.4749,-12.217361 18.16016,-17.345575 5.68525,-5.128214 10.88908,-10.120123 10.71831,-21.854531 -0.055,-3.7795893 -2.00925,-5.88640613 -5.60426,-5.77152038 z"
       inkscape:connector-curvature="0"
       style="fill:#002b64" />
    <path
       id="path7532"
       d="m 8.5942912,159.00088 c 14.4179278,2.06519 23.1860858,0 34.7642048,-5.02154 9.851208,-4.27251 19.365563,-13.08046 30.999113,-16.81429 17.085756,-5.48205 35.821671,0.007 54.085711,1.10153 4.44732,0.26721 8.86623,0.27005 13.22827,-0.20467 6.80389,-4.18154 6.66318,-19.82323 13.28513,-21.25592 -0.19472,21.94526 -9.19171,35.09395 -18.60088,47.82618 19.83033,-3.50214 31.69698,-14.97224 39.71183,-30.29129 2.43189,-4.64489 4.50845,-9.64227 6.3448,-14.87986 2.83839,2.1789 1.22945,8.80796 2.65646,12.39965 13.65894,-7.60836 21.4805,-24.9727 26.65981,-42.534595 5.99231,-20.324957 8.44551,-40.905753 12.3101,-46.919382 3.7722,-5.870075 9.64227,-9.48877 15.00067,-13.246755 6.08896,-4.272505 11.51984,-8.725519 12.45792,-16.866872 -6.42155,-0.594114 -7.90684,-2.0794 -8.85628,-5.3157583 -3.21504,1.8121902 -6.1714,2.2002121 -9.51151,2.2997049 -2.89809,0.088122 -6.08186,-0.041218 -9.9706,0.3581741 -32.16034,3.3031613 -36.24665,38.7496023 -56.86014,58.8443043 -1.49949,1.461123 -3.12123,2.824174 -4.83535,4.103368 -7.21891,5.379717 -16.07519,9.224403 -24.21939,12.337107 -13.18279,5.037178 -25.71604,5.395352 -38.084418,9.743187 -9.079428,3.190876 -18.305253,7.820137 -25.762949,12.924117 -1.864779,1.27493 -3.621538,2.58113 -5.237585,3.90296 -4.376262,3.58032 -7.248761,7.55292 -10.027453,11.63923 -2.865392,4.21139 -5.632713,8.54359 -9.851208,12.68249 -6.833734,6.71008 -32.369271,1.95717 -41.3591561,8.17973 -1.0020346,0.69219 -1.797977,1.52366 -2.3395021,2.52143 4.9049949,2.22864 8.1811502,0.86133 13.8238132,1.48529 0.740511,5.35413 -11.6420783,8.53648 -9.8114108,11.00248 z"
       inkscape:connector-curvature="0"
       style="fill:#ffffff" />
    <path
       id="path7534"
       d="m 203.4351,120.42605 c 0.38376,6.14296 3.94987,18.33083 7.0981,21.29288 -6.16571,1.49949 -16.78728,-0.97788 -19.51196,-5.32713 1.40001,-6.27942 8.68572,-12.02015 12.41386,-15.96575 z"
       inkscape:connector-curvature="0"
       style="fill:#ffffff" />
    <path
       id="path7536"
       d="m 212.46763,22.934787 c 4.5525,3.952707 14.10523,0.780308 12.39822,-7.083887 -7.07394,-0.585586 -11.17162,1.815033 -12.39822,7.083887 z"
       inkscape:connector-curvature="0"
       style="fill:#002b64" />
    <path
       id="path7538"
       d="m 244.20725,13.744495 c -1.21097,2.539909 -3.52915,5.814643 -3.52915,12.280254 -0.01,1.110055 -0.84285,1.870465 -0.85706,0.159188 0.0625,-6.319214 1.73544,-9.051002 3.5121,-12.64127 0.82579,-1.471072 1.32325,-0.864166 0.87411,0.201828 z"
       inkscape:connector-curvature="0"
       style="fill:#002b64" />
    <path
       id="path7540"
       d="m 242.98775,12.787943 c -1.42843,2.42336 -4.86804,6.843683 -5.43657,13.285131 -0.10518,1.10437 -1.00345,1.788028 -0.86701,0.08102 0.6197,-6.287945 3.36855,-10.223596 5.45505,-13.644727 0.9466,-1.391478 1.39148,-0.743353 0.84853,0.27858 v 0 z"
       inkscape:connector-curvature="0"
       style="fill:#002b64" />
    <path
       id="path7542"
       d="m 241.87628,11.52012 c -1.62742,2.29402 -6.92186,7.602672 -8.02907,13.974475 -0.19899,1.090156 -1.15128,1.698484 -0.87128,0.0085 1.14559,-6.215457 5.70947,-11.100553 8.07598,-14.331226 1.06031,-1.3090414 1.44833,-0.625384 0.82437,0.348224 v 0 z"
       inkscape:connector-curvature="0"
       style="fill:#002b64" />
    <path
       id="path7544"
       d="m 240.88419,10.105901 c -1.933,2.042445 -8.24511,8.81222 -10.23496,14.963717 -0.35249,1.051781 -1.38011,1.520819 -0.86417,-0.113706 2.00691,-5.992309 7.53445,-12.446549 10.33162,-15.3119415 1.23513,-1.1470098 1.52223,-0.4150271 0.76751,0.4619305 z"
       inkscape:connector-curvature="0"
       style="fill:#002b64" />
  </g>
</svg>
